X: 20
T: Madam Saqui's Waltz
%R: waltz
B: "Le Sylphe, Twenty Four Country Dances with Figures for the Year 1818", Button & Whitaker, p.10 #2
F: http://www.vwml.org/browse/browse-collections-dance-tune-books/browse-button1818
Z: 2014 John Chambers <jc:trillian.mit.edu>
N: The Figures by Mr WILSON.
M: 3/8
L: 1/16
K: C
% - - - - - - - - - - - - - - - - - - - - - - - - - - - - -
|:\
c2G2c2 | B6 | c2G2c2 | d6 | e2d2c2 | c2B2A2 |\
G2A2B2 | c6 :||: e6 | e6 | e6 | e6 |
{e}f6 | e2d2c2 | B2A2B2 | c6 :||:[K:F] c2d2e2 | f2(fg).a2 |\
g2(ga).b2 | a2(ab).c'2 | c2d2e2 | f2(fg).a2 | f2(fgbg) | f2z2 :|
% - - - - - - - - - - Dance description - - - - - - - - - -
%%center WALTZ FIGURE        (Each strain repeated)
%%begintext align
%% The 3 Gent: turn the 3 Ladies a la waltz |: whole poussette
%% with sauteuse step |: & swing corners a la waltz |: .
%%endtext
%%center COUNTRY DANCE FIGURE        (Each strain repeated)
%%begintext align
%% Hands 3 round on the Ladies side hands 3 round on the Gent:
%% side |: promenade 3 Cu: |: & turn corners |: .
%%endtext
%%sep 1 1 450

%%sep 1 1 500
%%sep 1 1 500

